svg/fluentui-system-icons/ic_fluent_stack_star_24_filled.svg

<svg width="24" height="24" viewBox="0 0 24 24" fill="none" xmlns="http://www.w3.org/2000/svg">
<path d="M4 4C2.89543 4 2 4.89543 2 6V13C2 14.1046 2.89543 15 4 15H15C16.1046 15 17 14.1046 17 13V6C17 4.89543 16.1046 4 15 4H4ZM9.49999 6.09998C9.68938 6.09998 9.86251 6.20698 9.9472 6.37637L10.8275 8.13703L12.562 8.35384C12.7596 8.37854 12.9238 8.51818 12.9798 8.7093C13.0358 8.90043 12.9731 9.10658 12.8201 9.23409L11.5542 10.289L11.9881 12.2415C12.0318 12.4382 11.9532 12.6419 11.7886 12.7582C11.6241 12.8746 11.4059 12.8808 11.235 12.774L9.49999 11.6896L7.76499 12.774C7.59413 12.8808 7.37586 12.8746 7.21133 12.7582C7.04681 12.6419 6.96819 12.4382 7.0119 12.2415L7.44579 10.289L6.1799 9.23409C6.02689 9.10658 5.96415 8.90043 6.02019 8.7093C6.07622 8.51818 6.24034 8.37854 6.43797 8.35384L8.17245 8.13703L9.05278 6.37637C9.13747 6.20698 9.31061 6.09998 9.49999 6.09998ZM6.50001 17.5C5.56809 17.5 4.78504 16.8626 4.56302 16H15.5C16.8807 16 18 14.8807 18 13.5V6.56299C18.8626 6.78501 19.5 7.56806 19.5 8.49998V13.5C19.5 15.7091 17.7091 17.5 15.5 17.5H6.50001ZM9.00001 20C8.06809 20 7.28504 19.3626 7.06302 18.5H16.25C18.5972 18.5 20.5 16.5972 20.5 14.25V9.06299C21.3626 9.28501 22 10.0681 22 11V14.25C22 17.4256 19.4256 20 16.25 20H9.00001Z" fill="#212121"/>
</svg>

<svg xmlns="http://www.w3.org/2000/svg" width="24" height="24"><path d="M4 4a2 2 0 0 0-2 2v7a2 2 0 0 0 2 2h11a2 2 0 0 0 2-2V6a2 2 0 0 0-2-2H4Zm5.5 2.1a.5.5 0 0 1 .447.276l.88 1.761 1.735.217a.5.5 0 0 1 .258.88l-1.266 1.055.434 1.953a.5.5 0 0 1-.753.532L9.5 11.69l-1.735 1.084a.5.5 0 0 1-.753-.532l.434-1.953L6.18 9.234a.5.5 0 0 1 .258-.88l1.734-.217.88-1.76A.5.5 0 0 1 9.5 6.1Zm-3 11.4A2 2 0 0 1 4.563 16H15.5a2.5 2.5 0 0 0 2.5-2.5V6.563A2 2 0 0 1 19.5 8.5v5a4 4 0 0 1-4 4h-9ZM9 20a2 2 0 0 1-1.937-1.5h9.187a4.25 4.25 0 0 0 4.25-4.25V9.063A2 2 0 0 1 22 11v3.25A5.75 5.75 0 0 1 16.25 20H9Z"/></svg>
